images/logo.svg

<svg width="42" height="42" viewBox="0 0 42 42" fill="none" xmlns="http://www.w3.org/2000/svg">
<path fill-rule="evenodd" clip-rule="evenodd" d="M10.5 0C16.2989 0 21 4.70101 21 10.5V0H31.5C37.2989 0 42 4.70101 42 10.5C42 16.2989 37.2989 21 31.5 21C37.2989 21 42 25.7011 42 31.5C42 34.3794 40.8409 36.9881 38.9639 38.8851L38.9247 38.9247L38.8898 38.9593C36.9924 40.839 34.3818 42 31.5 42C28.6378 42 26.043 40.8548 24.1489 38.9975C24.1244 38.9734 24.0998 38.949 24.0753 38.9247C24.0523 38.9017 24.0295 38.8786 24.0067 38.8554C22.147 36.9609 21 34.3644 21 31.5C21 37.2989 16.2989 42 10.5 42C4.70101 42 0 37.2989 0 31.5V21H10.5C4.70101 21 0 16.2989 0 10.5C0 4.70101 4.70101 0 10.5 0ZM18.9 10.5C18.9 15.1392 15.1392 18.9 10.5 18.9V2.1C15.1392 2.1 18.9 5.86081 18.9 10.5ZM39.9 31.5C39.9 26.8608 36.1392 23.1 31.5 23.1C26.8608 23.1 23.1 26.8608 23.1 31.5H39.9ZM2.1 23.1V31.5C2.1 36.1392 5.86081 39.9 10.5 39.9C15.1392 39.9 18.9 36.1392 18.9 31.5V23.1H2.1ZM23.1 18.9V2.1H31.5C36.1392 2.1 39.9 5.86081 39.9 10.5C39.9 15.1392 36.1392 18.9 31.5 18.9H23.1Z" fill="#6255A5"/>
</svg>

<svg xmlns="http://www.w3.org/2000/svg" width="42" height="42" fill="none" xmlns:v="https://vecta.io/nano"><path fill-rule="evenodd" d="M10.5 0C16.299 0 21 4.701 21 10.5V0h10.5C37.299 0 42 4.701 42 10.5S37.299 21 31.5 21C37.299 21 42 25.701 42 31.5c0 2.879-1.159 5.488-3.036 7.385l-.039.04-.035.035C36.992 40.839 34.382 42 31.5 42c-2.862 0-5.457-1.145-7.351-3.002l-.074-.073-.069-.069C22.147 36.961 21 34.364 21 31.5 21 37.299 16.299 42 10.5 42S0 37.299 0 31.5V21h10.5C4.701 21 0 16.299 0 10.5S4.701 0 10.5 0zm8.4 10.5a8.4 8.4 0 0 1-8.4 8.4V2.1a8.4 8.4 0 0 1 8.4 8.4zm21 21a8.4 8.4 0 0 0-16.8 0h16.8zM2.1 23.1v8.4a8.4 8.4 0 0 0 16.8 0v-8.4H2.1zm21-4.2V2.1h8.4a8.4 8.4 0 1 1 0 16.8h-8.4z" fill="#6255a5"/></svg>
